X:1771
T:Bonny Lass To Marry Me,A. HSJJ.163
M:4/4
L:1/8
Q:200
S:HSJ Jackson,Wyresdale,Lancs.1823
R:Reel
O:England
A:Lancashire
H:1823
Z:vmp.Chris Partington.
K:G
D|G2BG AGBG|DGBG AGEA|G2BG cBAB|GAGE D/D/D D:|!
|:e|dfdB AGAB|dgBg ~AGE2|de/f/ gB AGAB|GAGE DD/D/ D:|]


